X: 1514
T: Hal Stenzel's Mazurka
B: australian traditional tunes wiki
M:3/4
L:1/8
R: Mazurka
Q: 1/4=100
K:G
V:1 
"G"D>B, D>B,D2|"C"E>CE2C2|"D7"F>D F>DF2|"G"G>DG2D2
|D>B, D>B,D2|"C"E>CE2C2|"D7"F>D F>DF2|"G"G>DG2(3DGB||
"G"d>Bd2e>d|"Em"B>GB2c2|"D7"A>FA2e>d|"G"B>GB2 (3DGB|
d>Bd2e>d|"Em"B>GB2c2|"D7"A>FA2E>F|"G"G>DG2z2||
% abcbook-tune_id 6342d53a613aa5bfcd785069


% abcbook-boost 0
% abcbook-tablature 
% abcbook-transpose 
% abcbook-lastupdated 1665324368698
% abcbook-soundfonts 
% abcbook-repeats 1
% NFF Book 2019
% Bush Traditions recording played by Ingrid Wangel

